X:1
T: Tweedbridge Court
C:John Whittaker 1997
P:Adaptation by Bruce Shawyer
R:Strathspey
Q: 128
K:C
M:4/4
L:1/16
|:G4|g4 ge3 c4 d3e|d4 dB3 G4 A3B|c3d ec3 d3e fd3|((3e2f2g2) ((3a2f2e2) d4 G4|
g4 g3f e4 f3g|((3f2e2d2) fd3 B4 c3d|c4 c'g3 e4 f3g|((3f2e2d2) ge3 c4:|
|:B3c|d4 d3g ((3^f2e2d2) ((3e2d2c2) |B3c ((3d2c2B2) e4 g4|d3c ((3B2A2G2) ((3^F2E2D2) ((3C2B,2A,2)|G,4 G3A G4 G4|
g4 g3f e4 f3g|((3f2e2d2) fd3 B4 c3d|c4 c'g3 e4 f3g|((3f2e2d2) ge3 c4:|
